X:1
T:Partition sans titre
C:Compositeur / Arrangeur
L:1/8
M:6/8
I:linebreak $
K:C
V:1 treble nm="Violon" snm="Vln."
V:1
"Am" Ace ^d2 e | Ace ^d2 e | aee aee |"G7" fed"Am" c2 A |"Am" Ace ^d2 e | Ace ^d2 e | aee"G7" fed | %7
"Am" cdB A3 ::"Am" A2 B cBA |"G" B2 c dcB |"Am" A2 B cBA | E^DE F2 E |"Am" A2 B cBA |"G" B2 c dcB | %14
"Am" AEE"G7" FED |"Am" CDB, A,3 :| %16
